material/.icons/material/mouse-bluetooth.svg

<svg xmlns="http://www.w3.org/2000/svg" viewBox="0 0 24 24"><path d="M20 7h.5l2.85 2.85L21.21 12l2.14 2.14L20.5 17H20v-3.79l-2.29 2.29-.71-.71L19.79 12 17 9.21l.71-.71L20 10.79V7m1 1.91v1.88l.94-.94-.94-.94m0 4.3v1.87l.94-.94-.94-.93M15 9v1H9V2.07c3.39.49 6 3.4 6 6.93M1 10V9c0-3.53 2.61-6.44 6-6.93V10H1m14 5a7 7 0 01-7 7 7 7 0 01-7-7v-3h14v3z"/></svg>

<?xml version="1.0" encoding="UTF-8"?><!DOCTYPE svg PUBLIC "-//W3C//DTD SVG 1.1//EN" "http://www.w3.org/Graphics/SVG/1.1/DTD/svg11.dtd"><svg xmlns="http://www.w3.org/2000/svg" xmlns:xlink="http://www.w3.org/1999/xlink" version="1.1" id="mdi-mouse-bluetooth" width="24" height="24" viewBox="0 0 24 24"><path d="M20,7H20.5L23.35,9.85L21.21,12L23.35,14.14L20.5,17H20V13.21L17.71,15.5L17,14.79L19.79,12L17,9.21L17.71,8.5L20,10.79V7M21,8.91V10.79L21.94,9.85L21,8.91M21,13.21V15.08L21.94,14.14L21,13.21M15,9V10H9V2.07C12.39,2.56 15,5.47 15,9M1,10V9C1,5.47 3.61,2.56 7,2.07V10H1M15,15A7,7 0 0,1 8,22A7,7 0 0,1 1,15V12H15V15Z" /></svg>
